X:49
T:The Star of Munster
R:Reel
O:Ireland
M:C|
L:1/8
K:Ador
ed |  "Am" c2 Ac "G" B2 GB | "Am" AGEF "G" GE D2 | "Am" EAAB    cBcd | "Am" eaaf "G" gedB | 
      "Am" c2 Ac "G" B2 GB | "Am" AGEF "G" GE D2 | "Am" EAAB    cBcd | "G" ecdB  "Am"  A2 :|
zd |: "Am" eaab       ageg | agbg           agef | "G" {a}g2 ga gfef | geaf         ge d2 |
      "(Em)" eaab "G" ageg | "Am" agbg      agef | "G" ~g2 ge ~a2 af | "Em" bgaf     gfed :|
